hexagon-slice-4.svg

<svg fill="currentColor" viewBox="0 0 24 24"><path d="m12 5.32 6 3.37v6.62l-6 3.37-5.94-3.34L12 12zm9 11.18c0 .38-.21.71-.53.88l-7.9 4.44c-.16.12-.36.18-.57.18s-.41-.06-.57-.18l-7.9-4.44A.99.99 0 0 1 3 16.5v-9c0-.38.21-.71.53-.88l7.9-4.44c.16-.12.36-.18.57-.18s.41.06.57.18l7.9 4.44c.32.17.53.5.53.88zM12 4.15 5 8.09v7.82l7 3.94 7-3.94V8.09z"/></svg>

<svg  viewBox="0 0 24 24" fill="currentColor"><path  d="M12,5.32L18,8.69V15.31L12,18.68L6.06,15.34L12,12V5.32M21,16.5C21,16.88 20.79,17.21 20.47,17.38L12.57,21.82C12.41,21.94 12.21,22 12,22C11.79,22 11.59,21.94 11.43,21.82L3.53,17.38C3.21,17.21 3,16.88 3,16.5V7.5C3,7.12 3.21,6.79 3.53,6.62L11.43,2.18C11.59,2.06 11.79,2 12,2C12.21,2 12.41,2.06 12.57,2.18L20.47,6.62C20.79,6.79 21,7.12 21,7.5V16.5M12,4.15L5,8.09V15.91L12,19.85L19,15.91V8.09L12,4.15Z"/></svg>
